TileServer und Tiles/svg/9/4_28.svg

<?xml version='1.0' encoding='UTF-8' standalone='no'?>
<svg xmlns="http://www.w3.org/2000/svg" width="497pt" viewBox="0 0 497 279" xmlns:xlink="http://www.w3.org/1999/xlink" height="279pt">
 <defs style="stroke:none;" overflow="visible">
  <path id="glyph0-5" d="M 0.28125 0 L 1.671875 -6.46875 L 2.609375 -6.46875 L 2.46875 -5.28125 L 2.484375 -5.28125 C 2.640625 -5.476562 2.816406 -5.675781 3.015625 -5.875 C 3.222656 -6.082031 3.460938 -6.253906 3.734375 -6.390625 C 4.003906 -6.523438 4.3125 -6.59375 4.65625 -6.59375 C 5.175781 -6.59375 5.582031 -6.445312 5.875 -6.15625 C 6.164062 -5.875 6.3125 -5.476562 6.3125 -4.96875 C 6.3125 -4.78125 6.296875 -4.585938 6.265625 -4.390625 C 6.242188 -4.203125 6.21875 -4.039062 6.1875 -3.90625 L 5.328125 0 L 4.203125 0 L 5.0625 -4.046875 C 5.101562 -4.222656 5.132812 -4.375 5.15625 -4.5 C 5.175781 -4.625 5.1875 -4.742188 5.1875 -4.859375 C 5.1875 -5.367188 4.914062 -5.625 4.375 -5.625 C 4.101562 -5.625 3.8125 -5.53125 3.5 -5.34375 C 3.195312 -5.164062 2.910156 -4.867188 2.640625 -4.453125 C 2.378906 -4.035156 2.171875 -3.472656 2.015625 -2.765625 L 1.421875 0 Z M 0.28125 0 "/>
  <path id="glyph0-4" d="M 0.328125 0 L 2.265625 -9.125 L 3.328125 -9.125 L 1.375 0 Z M 0.328125 0 "/>
  <path id="glyph0-3" d="M 2.90625 0.125 C 2.15625 0.125 1.578125 -0.09375 1.171875 -0.53125 C 0.773438 -0.96875 0.578125 -1.554688 0.578125 -2.296875 C 0.578125 -2.816406 0.648438 -3.328125 0.796875 -3.828125 C 0.941406 -4.328125 1.15625 -4.78125 1.4375 -5.1875 C 1.71875 -5.601562 2.054688 -5.929688 2.453125 -6.171875 C 2.847656 -6.421875 3.296875 -6.546875 3.796875 -6.546875 C 4.398438 -6.546875 4.851562 -6.414062 5.15625 -6.15625 C 5.46875 -5.894531 5.625 -5.523438 5.625 -5.046875 C 5.625 -4.628906 5.492188 -4.25 5.234375 -3.90625 C 4.972656 -3.5625 4.566406 -3.285156 4.015625 -3.078125 C 3.460938 -2.878906 2.75 -2.78125 1.875 -2.78125 L 1.671875 -2.78125 C 1.660156 -2.707031 1.648438 -2.628906 1.640625 -2.546875 C 1.640625 -2.472656 1.640625 -2.40625 1.640625 -2.34375 C 1.640625 -1.851562 1.757812 -1.460938 2 -1.171875 C 2.238281 -0.890625 2.601562 -0.75 3.09375 -0.75 C 3.394531 -0.75 3.679688 -0.789062 3.953125 -0.875 C 4.234375 -0.96875 4.53125 -1.09375 4.84375 -1.25 L 4.84375 -0.34375 C 4.539062 -0.207031 4.242188 -0.09375 3.953125 0 C 3.660156 0.0820312 3.3125 0.125 2.90625 0.125 Z M 1.828125 -3.640625 L 1.90625 -3.640625 C 2.382812 -3.640625 2.828125 -3.679688 3.234375 -3.765625 C 3.648438 -3.847656 3.976562 -3.984375 4.21875 -4.171875 C 4.46875 -4.367188 4.59375 -4.632812 4.59375 -4.96875 C 4.59375 -5.175781 4.519531 -5.34375 4.375 -5.46875 C 4.238281 -5.601562 4.023438 -5.671875 3.734375 -5.671875 C 3.347656 -5.671875 2.976562 -5.492188 2.625 -5.140625 C 2.269531 -4.785156 2.003906 -4.285156 1.828125 -3.640625 Z M 1.828125 -3.640625 "/>
  <path id="glyph0-2" d="M 2.5625 -7.5 C 2.382812 -7.5 2.242188 -7.546875 2.140625 -7.640625 C 2.035156 -7.742188 1.984375 -7.882812 1.984375 -8.0625 C 1.984375 -8.269531 2.046875 -8.445312 2.171875 -8.59375 C 2.296875 -8.75 2.46875 -8.828125 2.6875 -8.828125 C 3.050781 -8.828125 3.234375 -8.648438 3.234375 -8.296875 C 3.234375 -8.046875 3.160156 -7.847656 3.015625 -7.703125 C 2.878906 -7.566406 2.726562 -7.5 2.5625 -7.5 Z M 0.34375 0 L 1.703125 -6.4375 L 2.765625 -6.4375 L 1.390625 0 Z M 0.34375 0 "/>
  <path id="glyph0-1" d="M 0.484375 0 L 2.296875 -8.5625 L 4.234375 -8.5625 C 5.160156 -8.5625 5.816406 -8.351562 6.203125 -7.9375 C 6.597656 -7.53125 6.796875 -7 6.796875 -6.34375 C 6.796875 -5.375 6.476562 -4.628906 5.84375 -4.109375 C 5.207031 -3.597656 4.269531 -3.34375 3.03125 -3.34375 L 2.265625 -3.34375 L 1.5625 0 Z M 2.453125 -4.25 L 3.203125 -4.25 C 3.972656 -4.25 4.582031 -4.414062 5.03125 -4.75 C 5.488281 -5.082031 5.71875 -5.597656 5.71875 -6.296875 C 5.71875 -6.773438 5.582031 -7.117188 5.3125 -7.328125 C 5.039062 -7.535156 4.632812 -7.640625 4.09375 -7.640625 L 3.1875 -7.640625 Z M 2.453125 -4.25 "/>
  <path id="glyph0-0" d="M 1.125 0 L 1.125 -8.5625 L 6.0625 -8.5625 L 6.0625 0 Z M 1.734375 -0.609375 L 5.453125 -0.609375 L 5.453125 -7.953125 L 1.734375 -7.953125 Z M 1.734375 -0.609375 "/>
 </defs>
 <image width="497" xlink:href="svg/9/4_28.jpg" height="279"/>
 <g>
  <path d="M 199.851562 145 L 201.664062 136.4375 L 203.601562 136.4375 C 204.527344 136.4375 205.183594 136.648438 205.570312 137.0625 C 205.964844 137.46875 206.164062 138 206.164062 138.65625 C 206.164062 139.625 205.84375 140.371094 205.210938 140.890625 C 204.574219 141.402344 203.636719 141.65625 202.398438 141.65625 L 201.632812 141.65625 L 200.929688 145 Z M 201.820312 140.75 L 202.570312 140.75 C 203.339844 140.75 203.949219 140.585938 204.398438 140.25 C 204.855469 139.917969 205.085938 139.402344 205.085938 138.703125 C 205.085938 138.226562 204.949219 137.882812 204.679688 137.671875 C 204.40625 137.464844 204 137.359375 203.460938 137.359375 L 202.554688 137.359375 Z M 201.820312 140.75 " transform=" rotate(  340 220.278 142.001) " style="fill:none;stroke-width:2;stroke-linecap:butt;stroke-linejoin:round;stroke:rgb(100%,100%,100%);stroke-opacity:0.6;stroke-miterlimit:10;"/>
  <path d="M 208.734375 137.5 C 208.554688 137.5 208.414062 137.453125 208.3125 137.359375 C 208.207031 137.257812 208.15625 137.117188 208.15625 136.9375 C 208.15625 136.730469 208.21875 136.554688 208.34375 136.40625 C 208.46875 136.25 208.640625 136.171875 208.859375 136.171875 C 209.222656 136.171875 209.40625 136.351562 209.40625 136.703125 C 209.40625 136.953125 209.332031 137.152344 209.1875 137.296875 C 209.050781 137.433594 208.898438 137.5 208.734375 137.5 Z M 206.515625 145 L 207.875 138.5625 L 208.9375 138.5625 L 207.5625 145 Z M 206.515625 145 " transform=" rotate(  340 220.278 142.001) " style="fill:none;stroke-width:2;stroke-linecap:butt;stroke-linejoin:round;stroke:rgb(100%,100%,100%);stroke-opacity:0.6;stroke-miterlimit:10;"/>
  <path d="M 212.175781 145.125 C 211.425781 145.125 210.847656 144.90625 210.441406 144.46875 C 210.042969 144.03125 209.847656 143.445312 209.847656 142.703125 C 209.847656 142.183594 209.917969 141.671875 210.066406 141.171875 C 210.210938 140.671875 210.425781 140.21875 210.707031 139.8125 C 210.988281 139.398438 211.324219 139.070312 211.722656 138.828125 C 212.117188 138.578125 212.566406 138.453125 213.066406 138.453125 C 213.667969 138.453125 214.121094 138.585938 214.425781 138.84375 C 214.738281 139.105469 214.894531 139.476562 214.894531 139.953125 C 214.894531 140.371094 214.761719 140.75 214.503906 141.09375 C 214.242188 141.4375 213.835938 141.714844 213.285156 141.921875 C 212.730469 142.121094 212.019531 142.21875 211.144531 142.21875 L 210.941406 142.21875 C 210.929688 142.292969 210.917969 142.371094 210.910156 142.453125 C 210.910156 142.527344 210.910156 142.59375 210.910156 142.65625 C 210.910156 143.148438 211.027344 143.539062 211.269531 143.828125 C 211.507812 144.109375 211.871094 144.25 212.363281 144.25 C 212.664062 144.25 212.949219 144.210938 213.222656 144.125 C 213.503906 144.03125 213.800781 143.90625 214.113281 143.75 L 214.113281 144.65625 C 213.808594 144.792969 213.511719 144.90625 213.222656 145 C 212.929688 145.082031 212.582031 145.125 212.175781 145.125 Z M 211.097656 141.359375 L 211.175781 141.359375 C 211.652344 141.359375 212.097656 141.320312 212.503906 141.234375 C 212.917969 141.152344 213.246094 141.015625 213.488281 140.828125 C 213.738281 140.632812 213.863281 140.367188 213.863281 140.03125 C 213.863281 139.824219 213.789062 139.65625 213.644531 139.53125 C 213.507812 139.398438 213.292969 139.328125 213.003906 139.328125 C 212.617188 139.328125 212.246094 139.507812 211.894531 139.859375 C 211.539062 140.214844 211.273438 140.714844 211.097656 141.359375 Z M 211.097656 141.359375 " transform=" rotate(  340 220.278 142.001) " style="fill:none;stroke-width:2;stroke-linecap:butt;stroke-linejoin:round;stroke:rgb(100%,100%,100%);stroke-opacity:0.6;stroke-miterlimit:10;"/>
  <path d="M 215.585938 145 L 217.523438 135.875 L 218.585938 135.875 L 216.632812 145 Z M 215.585938 145 " transform=" rotate(  340 220.278 142.001) " style="fill:none;stroke-width:2;stroke-linecap:butt;stroke-linejoin:round;stroke:rgb(100%,100%,100%);stroke-opacity:0.6;stroke-miterlimit:10;"/>
  <path d="M 220.914062 137.5 C 220.734375 137.5 220.59375 137.453125 220.492188 137.359375 C 220.386719 137.257812 220.335938 137.117188 220.335938 136.9375 C 220.335938 136.730469 220.398438 136.554688 220.523438 136.40625 C 220.648438 136.25 220.820312 136.171875 221.039062 136.171875 C 221.402344 136.171875 221.585938 136.351562 221.585938 136.703125 C 221.585938 136.953125 221.511719 137.152344 221.367188 137.296875 C 221.230469 137.433594 221.078125 137.5 220.914062 137.5 Z M 218.695312 145 L 220.054688 138.5625 L 221.117188 138.5625 L 219.742188 145 Z M 218.695312 145 " transform=" rotate(  340 220.278 142.001) " style="fill:none;stroke-width:2;stroke-linecap:butt;stroke-linejoin:round;stroke:rgb(100%,100%,100%);stroke-opacity:0.6;stroke-miterlimit:10;"/>
  <path d="M 221.730469 145 L 223.121094 138.53125 L 224.058594 138.53125 L 223.917969 139.71875 L 223.933594 139.71875 C 224.089844 139.523438 224.265625 139.324219 224.464844 139.125 C 224.671875 138.917969 224.910156 138.746094 225.183594 138.609375 C 225.453125 138.476562 225.761719 138.40625 226.105469 138.40625 C 226.625 138.40625 227.03125 138.554688 227.324219 138.84375 C 227.613281 139.125 227.761719 139.523438 227.761719 140.03125 C 227.761719 140.21875 227.746094 140.414062 227.714844 140.609375 C 227.691406 140.796875 227.667969 140.960938 227.636719 141.09375 L 226.777344 145 L 225.652344 145 L 226.511719 140.953125 C 226.550781 140.777344 226.582031 140.625 226.605469 140.5 C 226.625 140.375 226.636719 140.257812 226.636719 140.140625 C 226.636719 139.632812 226.363281 139.375 225.824219 139.375 C 225.550781 139.375 225.261719 139.46875 224.949219 139.65625 C 224.644531 139.835938 224.359375 140.132812 224.089844 140.546875 C 223.828125 140.964844 223.621094 141.527344 223.464844 142.234375 L 222.871094 145 Z M 221.730469 145 " transform=" rotate(  340 220.278 142.001) " style="fill:none;stroke-width:2;stroke-linecap:butt;stroke-linejoin:round;stroke:rgb(100%,100%,100%);stroke-opacity:0.6;stroke-miterlimit:10;"/>
  <path d="M 231.300781 145.125 C 230.550781 145.125 229.972656 144.90625 229.566406 144.46875 C 229.167969 144.03125 228.972656 143.445312 228.972656 142.703125 C 228.972656 142.183594 229.042969 141.671875 229.191406 141.171875 C 229.335938 140.671875 229.550781 140.21875 229.832031 139.8125 C 230.113281 139.398438 230.449219 139.070312 230.847656 138.828125 C 231.242188 138.578125 231.691406 138.453125 232.191406 138.453125 C 232.792969 138.453125 233.246094 138.585938 233.550781 138.84375 C 233.863281 139.105469 234.019531 139.476562 234.019531 139.953125 C 234.019531 140.371094 233.886719 140.75 233.628906 141.09375 C 233.367188 141.4375 232.960938 141.714844 232.410156 141.921875 C 231.855469 142.121094 231.144531 142.21875 230.269531 142.21875 L 230.066406 142.21875 C 230.054688 142.292969 230.042969 142.371094 230.035156 142.453125 C 230.035156 142.527344 230.035156 142.59375 230.035156 142.65625 C 230.035156 143.148438 230.152344 143.539062 230.394531 143.828125 C 230.632812 144.109375 230.996094 144.25 231.488281 144.25 C 231.789062 144.25 232.074219 144.210938 232.347656 144.125 C 232.628906 144.03125 232.925781 143.90625 233.238281 143.75 L 233.238281 144.65625 C 232.933594 144.792969 232.636719 144.90625 232.347656 145 C 232.054688 145.082031 231.707031 145.125 231.300781 145.125 Z M 230.222656 141.359375 L 230.300781 141.359375 C 230.777344 141.359375 231.222656 141.320312 231.628906 141.234375 C 232.042969 141.152344 232.371094 141.015625 232.613281 140.828125 C 232.863281 140.632812 232.988281 140.367188 232.988281 140.03125 C 232.988281 139.824219 232.914062 139.65625 232.769531 139.53125 C 232.632812 139.398438 232.417969 139.328125 232.128906 139.328125 C 231.742188 139.328125 231.371094 139.507812 231.019531 139.859375 C 230.664062 140.214844 230.398438 140.714844 230.222656 141.359375 Z M 230.222656 141.359375 " transform=" rotate(  340 220.278 142.001) " style="fill:none;stroke-width:2;stroke-linecap:butt;stroke-linejoin:round;stroke:rgb(100%,100%,100%);stroke-opacity:0.6;stroke-miterlimit:10;"/>
  <path d="M 234.664062 145 L 236.054688 138.53125 L 236.992188 138.53125 L 236.851562 139.71875 L 236.867188 139.71875 C 237.023438 139.523438 237.199219 139.324219 237.398438 139.125 C 237.605469 138.917969 237.84375 138.746094 238.117188 138.609375 C 238.386719 138.476562 238.695312 138.40625 239.039062 138.40625 C 239.558594 138.40625 239.964844 138.554688 240.257812 138.84375 C 240.546875 139.125 240.695312 139.523438 240.695312 140.03125 C 240.695312 140.21875 240.679688 140.414062 240.648438 140.609375 C 240.625 140.796875 240.601562 140.960938 240.570312 141.09375 L 239.710938 145 L 238.585938 145 L 239.445312 140.953125 C 239.484375 140.777344 239.515625 140.625 239.539062 140.5 C 239.558594 140.375 239.570312 140.257812 239.570312 140.140625 C 239.570312 139.632812 239.296875 139.375 238.757812 139.375 C 238.484375 139.375 238.195312 139.46875 237.882812 139.65625 C 237.578125 139.835938 237.292969 140.132812 237.023438 140.546875 C 236.761719 140.964844 236.554688 141.527344 236.398438 142.234375 L 235.804688 145 Z M 234.664062 145 " transform=" rotate(  340 220.278 142.001) " style="fill:none;stroke-width:2;stroke-linecap:butt;stroke-linejoin:round;stroke:rgb(100%,100%,100%);stroke-opacity:0.6;stroke-miterlimit:10;"/>
  <g transform=" rotate(  340 220.278 142.001) " style="fill:rgb(30.196078%,50.196078%,70.196078%);fill-opacity:1;">
   <use xlink:href="#glyph0-1" y="145.001285" x="199.368009"/>
   <use xlink:href="#glyph0-2" y="145.001285" x="206.172009"/>
   <use xlink:href="#glyph0-3" y="145.001285" x="209.268009"/>
   <use xlink:href="#glyph0-4" y="145.001285" x="215.256009"/>
   <use xlink:href="#glyph0-2" y="145.001285" x="218.352009"/>
   <use xlink:href="#glyph0-5" y="145.001285" x="221.448009"/>
   <use xlink:href="#glyph0-3" y="145.001285" x="228.396009"/>
   <use xlink:href="#glyph0-5" y="145.001285" x="234.384009"/>
  </g>
 </g>
</svg>

<svg xmlns="http://www.w3.org/2000/svg" xmlns:xlink="http://www.w3.org/1999/xlink" viewBox="0 0 497 279"> <defs overflow="visible" style="stroke:none">  <path id="e" d="m.3 0 1.4-6.5h1l-.3 1.2.6-.6.7-.5a2 2 0 0 1 1-.2c.5 0 .9.2 1.2.4.3.3.4.7.4 1.2v.6l-.1.5L5.3 0H4.2l.9-4v-1c.1-.4-.1-.6-.6-.6s-.7 0-1 .3c-.3.1-.6.3-.9.8L2-2.8 1.4 0Zm0 0"/>  <path id="d" d="m.3 0 2-9.1h1L1.3 0Zm0 0"/>  <path id="c" d="M3 .1C2.1.1 1.5 0 1.1-.5.8-1 .6-1.5.6-2.3c0-.5 0-1 .2-1.5.1-.5.4-1 .6-1.4l1-1c.5-.2 1-.3 1.5-.3s.9 0 1.3.3c.3.3.4.7.4 1.2 0 .4-.1.8-.4 1-.2.5-.6.8-1.2 1l-2 .1h-.3v.6c-.1.3-.1.8.3 1.1.2.3.6.4 1 .4h1l.8-.5v1c-.3 0-.6.2-.8.3L3 .1ZM1.7-3.6H2c.4 0 1 0 1.2-.2.4 0 .8-.2 1-.4.3-.2.4-.4.4-.8 0-.2 0-.3-.2-.5l-.7-.2c-.4 0-.7.2-1 .7-.5.2-.7.7-1 1.4Zm.1 0"/>  <path id="b" d="M2.6-7.5 2-7.6v-.5c0-.2 0-.3.2-.5.1-.2.3-.2.5-.2.3 0 .5.2.5.5s0 .5-.2.6l-.4.2ZM.3 0l1.4-6.4h1L1.5 0Zm0 0"/>  <path id="a" d="m.5 0 1.8-8.6h2c.8 0 1.4.2 1.8.7.5.4.7.9.7 1.6 0 1-.3 1.7-1 2.2-.6.5-1.5.8-2.8.8h-.7L1.6 0Zm2-4.3h.7c.8 0 1.4 0 1.8-.5.5-.2.7-.7.7-1.5 0-.5-.1-.8-.4-1-.3-.2-.7-.3-1.2-.3H3Zm0 0"/>  <path d="M1.1 0v-8.6h5V0Zm.6-.6h3.8V-8H1.7Zm0 0"/> </defs> <image xlink:href="svg/9/4_28.jpg" width="497" height="279"/> <path d="m199.9 145 1.8-8.6h1.9c1 0 1.6.2 2 .7.4.4.6.9.6 1.6 0 1-.4 1.7-1 2.2-.6.5-1.6.8-2.8.8h-.8l-.6 3.3Zm2-4.3h.6c.8.1 1.4 0 1.9-.4.5-.5.7-1 .7-1.6-.1-.5-.2-.8-.4-1-.3-.2-.7-.3-1.2-.3h-1ZM208.7 137.5l-.4-.1-.1-.5.1-.5c.2-.2.3-.2.7-.2s.4.2.4.5 0 .5-.2.6l-.5.2Zm-2.2 7.5 1.5-6.4h.9l-1.3 6.4Zm5.7.1c-.8 0-1.4-.1-1.8-.6-.4-.5-.6-1-.6-1.8l.3-1.5c.1-.5.3-1 .6-1.4l1-1c.4-.2.9-.3 1.4-.3.6 0 .9 0 1.3.3.3.3.6.7.6 1.2-.1.4-.2.8-.5 1-.3.5-.7.8-1.2 1l-2.3.1v.6c0 .3 0 .8.3 1.1.2.3.6.4 1 .4h1.1l.6-.5v1l-.8.3-1 .1Zm-1.2-3.7c.8 0 1.2 0 1.6-.2.3 0 .6-.2.9-.4.2-.2.4-.4.4-.8 0-.2-.1-.3-.3-.5l-.6-.2c-.4 0-.8.2-1.1.7-.4.2-.6.7-.9 1.4Zm4.6 3.6 2-9.1h.9l-1.9 9.1Zm5.4-7.5-.6-.1-.1-.5.2-.5c.1-.2.3-.2.5-.2.4 0 .6.2.6.5s0 .5-.2.6l-.5.2Zm-2.4 7.5 1.5-6.4h.9l-1.3 6.4Zm3.1 0 1.4-6.5h1l-.2 1.2.6-.6.7-.5a2 2 0 0 1 1-.2c.3 0 .8.2 1 .4.4.3.6.7.6 1.2v.6l-.3.5-.7 3.9h-1.1l.8-4 .1-.5v-.4c0-.5-.2-.7-.8-.7-.2 0-.5 0-.8.3-.4.1-.6.3-.9.8-.3.5-.5 1-.6 1.7l-.6 2.8Zm9.6.1c-.7 0-1.3-.1-1.7-.6-.4-.5-.6-1-.6-1.8 0-.5 0-1 .2-1.5.1-.5.4-1 .6-1.4l1-1c.4-.2.9-.3 1.4-.3.6 0 1 0 1.4.3.3.3.4.7.4 1.2 0 .4 0 .8-.4 1-.2.5-.6.8-1.2 1l-2.1.1h-.3v.6c0 .3 0 .8.3 1.1.3.3.7.4 1.1.4h1.1l.6-.5v1l-.8.3-1 .1Zm-1-3.7c.5 0 1 0 1.3-.2.4 0 .8-.2 1-.4.4-.2.4-.4.4-.8 0-.2 0-.3-.2-.5l-.8-.2c-.3 0-.6.2-.9.7-.5.2-.8.7-1 1.4Zm4.4 3.6 1.3-6.5h1l-.1 1.2.5-.6.7-.5a2 2 0 0 1 1-.2c.4 0 .9.2 1.1.4.3.3.5.7.5 1.2v.6l-.2.5-.8 3.9h-1.1l.8-4 .1-.5v-.4c.1-.5-.1-.7-.6-.7-.4 0-.7 0-1.1.3l-.8.8-.6 1.7-.6 2.8Zm0 0" style="fill:none;stroke-width:2;stroke-linecap:butt;stroke-linejoin:round;stroke:#fff;stroke-opacity:.6;stroke-miterlimit:10" transform=" rotate(  340 220.278 142.001) "/> <g style="fill:#4d80b3;fill-opacity:1" transform=" rotate(  340 220.278 142.001) ">  <use xlink:href="#a" x="199.4" y="145"/>  <use xlink:href="#b" x="206.2" y="145"/>  <use xlink:href="#c" x="209.3" y="145"/>  <use xlink:href="#d" x="215.3" y="145"/>  <use xlink:href="#b" x="218.4" y="145"/>  <use xlink:href="#e" x="221.4" y="145"/>  <use xlink:href="#c" x="228.4" y="145"/>  <use xlink:href="#e" x="234.4" y="145"/> </g></svg>
